src/images/std-icons/std-camera.svg

<svg xmlns="http://www.w3.org/2000/svg" width="512" height="512" viewBox="0 0 512 512">
  <title>camera</title>
  <circle cx="256.002" cy="277.34" r="53.333" fill="#000" fill-rule="nonzero"/>
  <path fill="#000" fill-rule="nonzero" d="M392.5696,149.338453 L392.56832,149.338453 L392.5344,149.339947 L349.423787,149.339947 C344.244075,149.340026 339.276487,147.282437 335.613867,143.61984 L307.274027,115.27872 C301.764576,109.769086 294.292149,106.67328 286.50048,106.67328 L225.501867,106.67328 C217.710197,106.67328 210.23777,109.769086 204.72832,115.27872 L176.38848,143.61984 C172.726226,147.282203 167.759126,149.33978 162.57984,149.339947 L119.467947,149.339947 C101.216366,148.741382 85.9352613,163.051891 85.3352533,181.303467 L85.3352533,181.304747 L85.3352533,181.339947 L85.3352533,373.339947 C85.6127869,382.10534 89.3612209,390.401419 95.7558411,396.402917 C102.150461,402.404415 110.667382,405.619652 119.432747,405.341227 L119.434027,405.341227 L119.467947,405.339947 L392.534613,405.339947 C401.29991,405.627552 409.820415,402.421168 416.221507,396.42624 C422.622599,390.431313 426.379869,382.138976 426.66944,373.373653 L426.66944,373.339947 L426.66944,181.339947 C426.391352,172.574307 422.642429,164.278176 416.24743,158.276696 C409.852431,152.275216 401.335229,149.060022 392.5696,149.338453 Z M256.00192,362.67328 C208.873621,362.67328 170.668587,324.468245 170.668587,277.339947 C170.668587,230.211648 208.873621,192.006613 256.00192,192.006613 C303.130219,192.006613 341.335253,230.211648 341.335253,277.339947 C341.335253,299.971754 332.344803,321.676621 316.341699,337.679725 C300.338594,353.68283 278.633727,362.67328 256.00192,362.67328 Z"/>
</svg>

<svg xmlns="http://www.w3.org/2000/svg" viewBox="0 0 512 512">
  <title>
    camera
  </title>
  <circle cx="256" cy="277.34" r="53.33"/>
  <path d="M392.57 149.34h-43.14a19.53 19.53 0 0 1-13.82-5.72l-28.34-28.34a29.38 29.38 0 0 0-20.77-8.6h-61c-7.79 0-15.26 3.09-20.77 8.6l-28.34 28.34a19.53 19.53 0 0 1-13.81 5.72h-43.11a33.07 33.07 0 0 0-34.13 31.96v192.04a33.06 33.06 0 0 0 34.1 32h273.09a33.07 33.07 0 0 0 34.14-31.97V181.34a33.07 33.07 0 0 0-34.1-32zM256 362.67a85.33 85.33 0 1 1 0-170.66 85.33 85.33 0 0 1 0 170.66z"/>
</svg>
